X: 1
T: Poma\vsko \vSirto
%T: Помашко Ширто
O: Bulgaria
M: 7/16
L: 1/16
P: ABACA
B: Pinewoods International Collection
Z: 2009 John Chambers <jc:trillian.mit.edu>
K: F#m
"A"|:::\
"F#m"GAA ~A2GB | "E"A~G2 E2GA | B~A2 A2GE |1,3 "F#m"~F3 AB~c2 :|2,4 "F#m"~F3 "fine"F4 :|
"B"|:
   "F#m"A2B ~c2~c2 | ~c2B ~c3B | "(E)"^d~e2 ~e2e=d | "A"~c2B ~A2~A2 ||
   "F#m"A~B2 ~c2cB | "E"B~c2 ~B2AG | "F#m"E~F2 ~F2FE | "(A)"ABc ~A2AE ||
   "F#m"A~B2 ~c2cB | "E"B~c2 ~B2AG | "F#m"E~F2 ~F2AB | ~F3 F4 :|
"C"|:::\
    "Bm"cdd ~d2ce | "(A)"d~c2 ~A2cd | "A"e~d2 ~d2cA |1,3 "Bm"~B3 de~f2 :|2,4 "Bm"~B3 B4 :|
